X: 1617
T: Ruhnüvaz Seyir
C: Erol Bingöl
O: Turkey
F: http://compmusic.upf.edu/node/140
N: ruhnuvaz--seyir--sofyan--1--erol_bingol
N: makam= ruhnuvaz
N: form= seyir
N: usul= sofyan = 4/4
M: 4/4
L: 1/16
K: C ^9/8f   
Q: 1/4=60
%%MIDI tuningsystem comma53
B2c2 B2A2 G4 F4  | G2A2 G2F2 E8  | B2c2 B2A2 B2c2 d2e2  | \
w:   |   |   | 
f2e2 d2c2 B8  | 
w:   | 
e4 ^d2e2 f2g2 f2e2  | ^d2c2 B2A2 G8  | \
w:   |   | 
F2G2 F2E2 F2G2 A2B2  | G2F2 E2^D2 E8  | 
w:   |   | 
|


